X: 1
T: Braes Of Tulliemet, The
M: 4/4
L: 1/8
R: strathspey
K: Edor
E<BB>A B>AB<d|F<DA>D B>DA>F|E<BB>A B>AB<e|1 d>BA<F E2E>D:|2 d>BA<F E2E>g||
e>Be<g e>Be<g|d>Ad<f d>Ad<f|e>Be<g e>Be<g|d>BA<F E2E>g|
e>Be<g B>eg>e|d>Ad<f A>df>d|e<BB>c d>ef>e|d>BA<F E2E>D||
